app/assets/images/qbrick/cms/icons/source/link-to.svg

<svg xmlns="http://www.w3.org/2000/svg" width="24" height="24" viewBox="0 0 24 24"><path d="M12 3.9c1.7 0 3.1 1.4 3.1 3.1v4h1.9v-4c0-2.8-2.2-5-5-5s-5 2.2-5 5v4h1.9v-4c0-1.7 1.4-3.1 3.1-3.1zm-1 4.1v8h2v-8h-2zm6 9v-4h-1.9v4c0 1.7-1.4 3.1-3.1 3.1s-3.1-1.4-3.1-3.1v-4h-1.9v4c0 2.8 2.2 5 5 5s5-2.2 5-5z"/></svg>

<svg xmlns="http://www.w3.org/2000/svg" width="24" height="24" viewBox="0 0 24 24"><path d="M12 3.9c1.7 0 3.1 1.4 3.1 3.1v4H17V7c0-2.8-2.2-5-5-5S7 4.2 7 7v4h1.9V7c0-1.7 1.4-3.1 3.1-3.1zM11 8v8h2V8h-2zm6 9v-4h-1.9v4c0 1.7-1.4 3.1-3.1 3.1S8.9 18.7 8.9 17v-4H7v4c0 2.8 2.2 5 5 5s5-2.2 5-5z"/></svg>
